X: 10373
T: TRIUMPH -- Contre Dance
R: reel
B: K\"ohler's Violin Repository, v.1, 1885 p.37 #3
F: http://www.archive.org/details/klersviolinrepos01edin
Z: 2011 John Chambers <jc:trillian.mit.edu>
M: C|
L: 1/8
K: A
(uaf) !segno!|\
(ec)cA (dB)BG | (Aa)ga (fg)af | (ec)cA (dB)BG | A2c2A2 :|
|: uc2 |\
[B2E2]d2 [c2E2]e2 | [B2E2]d2 [c2E2]e2 | [B2E2]d2 [c2E2]e2 | edcB A2 :|
|: ud2 |\
c2(cd) edcd | B2(Bc)d2c2 | (dc)de (fg)af |[1 edcB A2 :|[2 (ga)bg (ag)a"_D.C."f !segno!|]

%%sep 2 1 500

